X:14
T:Billy in the Lowground
R:Reel
M:4/4
L:1/8
K:C
CA,| "C"G,A,CD EGAB|cBcd cAGB|"Am"ABAG EGAB|"F"cAGE "G7"DCCA,|
"C"G,A,CD EGAB|cBcd cAGB|"Am"ABAG EGAB|"G7"cAGE  "C"DC2:|
|:"C"eg2e g2eg|aged cAG2|"Am (F)"ea2g a2eg|agab age2|
"C"eg2e g2eg|"(Am)"aged cAGB|"F"ABAG EGAB|"G7"cAGE  "C"DC3:|"last time"cAGE C4|]
